X: 254
T:Alma redemptoris mater / Tu que genuisti
N: Derived from Jos2301-Alma_redemptoris_mater.krn
C: Josquin des Prez
%%abc-version 2.0
%%abcx-abcm2ps-target-version 5.9.1 (29 Sep 2008)
%%abc-creator hum2abc beta
%%abcx-conversion-date 2019/02/12 16:15:51
%%abc-edited-by Jesse Rodin
%%abc-edited-by Joel Chapman 2011/7/15; Victoria Chang 2011/08/08
%%abcx-initial-encoding-date 2011/08/08/
%%humdrum-veritas 2003625410
%%humdrum-veritas-data 1834658215
%%linebreak <none>
%%barnumbers 0
L: 1/4
M: 2/1
Q: 1/2=120
%%staves [1 2 3 4]
V: 1 clef=treble-8
V: 2 clef=treble-8
V: 3 clef=treble-8
V: 4 clef=bass
K: F
[V:1] F4A4 | 
[V:2] z8 | 
[V:3] z8 | 
[V:4] z8 | 
[V:1] B4c4 | 
[V:2] z8 | 
[V:3] z8 | 
[V:4] z8 | 
[V:1] z2F3EDC | 
[V:2] z8 | 
[V:3] z8 | 
[V:4] F,4A,4 | 
[V:1] D4C2c2- | 
[V:2] z8 | 
[V:3] z8 | 
[V:4] B,4C4 | 
[V:1] cBAGF2f2- | 
[V:2] F4A4 | 
[V:3] z8 | 
[V:4] z2F,3E,D,C, | 
[V:1] f2ede4 | 
[V:2] B4c4 | 
[V:3] z8 | 
[V:4] D,4C,2C2- | 
[V:1] A8 | 
[V:2] z4z2c2 | 
[V:3] F4A4 | 
[V:4] CB,A,G,F,2A,2 | 
[V:1] z4A3B | 
[V:2] d2e2f4 | 
[V:3] B4c4 | 
[V:4] G,4F,4 | 
[V:1] c2C2cBAG | 
[V:2] e3de2f2- | 
[V:3] z4z2c2 | 
[V:4] C,2CB,A,G,F,2- | 
[V:1] F2c2A2B2 | 
[V:2] f2e2d4 | 
[V:3] d2e2f4 | 
[V:4] F,E,C,2D,2B,,2 | 
[V:1] G2A4DE | 
[V:2] c3Bc2d2 | 
[V:3] e3de2f2- | 
[V:4] C,4z4 | 
[V:1] FGA4G2 | 
[V:2] A4B4 | 
[V:3] f2e2d4 | 
[V:4] z8 | 
[V:1] A4z4 | 
[V:2] A8 | 
[V:3] c3Bc2d2 | 
[V:4] F,3G,A,2D,E, | 
[V:1] z8 | 
[V:2] z8 | 
[V:3] A4B4 | 
[V:4] F,G,A,4G,2 | 
[V:1] F3GABc2- | 
[V:2] c4c4 | 
[V:3] A8 | 
[V:4] A,2F,3E,C,2 | 
[V:1] c2=B2c4 | 
[V:2] F4G4 | 
[V:3] z8 | 
[V:4] D,4C,4 | 
[V:1] F3GABc2 | 
[V:2] A6G2 | 
[V:3] c4c4 | 
[V:4] z2F,4E,2 | 
[V:1] d2f4e2 | 
[V:2] A2B2c4- | 
[V:3] F4G4 | 
[V:4] D,4C,4 | 
[V:1] f3ef2g2 | 
[V:2] c2F2c3B | 
[V:3] A6G2 | 
[V:4] F,6E,2 | 
[V:1] c2d2edcB | 
[V:2] A2F2G4 | 
[V:3] A2B2c4- | 
[V:4] F,2D,2C,4 | 
[V:1] A2c3BAG | 
[V:2] F8 | 
[V:3] c2F2c3B | 
[V:4] C3B,A,G,F,2- | 
[V:1] F2f4e2 | 
[V:2] z8 | 
[V:3] A2F2G4 | 
[V:4] F,2D,2C,4 | 
[V:1] f4z2F2 | 
[V:2] c4d4 | 
[V:3] F8 | 
[V:4] z2F,4E,D, | 
[V:1] G2A4F2 | 
[V:2] e4f4 | 
[V:3] z8 | 
[V:4] C,4D,4 | 
[V:1] G2A2D2B2 | 
[V:2] z2e2f2d2- | 
[V:3] c4d4 | 
[V:4] C,4z2B,,2 | 
[V:1] AGG4F2 | 
[V:2] dcc4=B2 | 
[V:3] e4f4 | 
[V:4] C,4D,4 | 
[V:1] G2A3Ff2- | 
[V:2] c4z4 | 
[V:3] z2e2f2d2- | 
[V:4] C,4F,4 | 
[V:1] f2e2d4 | 
[V:2] F4G4 | 
[V:3] dcc4=B2 | 
[V:4] z8 | 
[V:1] c2A2d4 | 
[V:2] A2c2B4 | 
[V:3] c4z4 | 
[V:4] z8 | 
[V:1] c8 | 
[V:2] A4c4- | 
[V:3] F4G4 | 
[V:4] z4C,4 | 
[V:1] z2c2d2f2- | 
[V:2] c4F4- | 
[V:3] A2c2B4 | 
[V:4] A,,4D,4- | 
[V:1] f2ede4 | 
[V:2] F4G4 | 
[V:3] A4c4- | 
[V:4] D,4C,4 | 
[V:1] c3BAGA2 | 
[V:2] A3GABc2- | 
[V:3] c4F4- | 
[V:4] F,8 | 
[V:1] F2f4e2 | 
[V:2] c2A2G4 | 
[V:3] F4G4 | 
[V:4] A,4B,4 | 
[V:1] f2c3BA2 | 
[V:2] F8 | 
[V:3] A3GABc2- | 
[V:4] C3B,A,G,F,2 | 
[V:1] G2F4E2 | 
[V:2] z8 | 
[V:3] c2A2G4 | 
[V:4] E,2F,2C,4 | 
[V:1] F3GA2B2 | 
[V:2] f6ed | 
[V:3] F8 | 
[V:4] D,8 | 
[V:1] c6BA | 
[V:2] e3de2f2- | 
[V:3] z8 | 
[V:4] C,3B,,C,2D,2- | 
[V:1] A2B6 | 
[V:2] fedcd4 | 
[V:3] f6ed | 
[V:4] D,2B,,2B,,4 | 
[V:1] G2A4D2 | 
[V:2] c3Bc2d2- | 
[V:3] e3de2f2- | 
[V:4] C,4z4 | 
[V:1] D4z4 | 
[V:2] dcBAB4 | 
[V:3] fedcd4 | 
[V:4] z8 | 
[V:1] z8 | 
[V:2] A4F4 | 
[V:3] c3Bc2d2- | 
[V:4] z8 | 
[V:1] z4d4 | 
[V:2] G6FG | 
[V:3] dcBAB4 | 
[V:4] z8 | 
[V:1] c4f3e | 
[V:2] A3GA2B2- | 
[V:3] A4F4 | 
[V:4] z4D,4 | 
[V:1] dcd4c2 | 
[V:2] BAGFG4 | 
[V:3] G6FG | 
[V:4] B,,4_E,4 | 
[V:1] d2c2f4- | 
[V:2] F8 | 
[V:3] A3GA2B2- | 
[V:4] D,2F,3_E,D,C, | 
[V:1] f2ede4 | 
[V:2] z4c4- | 
[V:3] BAGFG4 | 
[V:4] B,,2D,2C,4 | 
[V:1] f4z4 | 
[V:2] c2c2c2c2 | 
[V:3] F8 | 
[V:4] z4F,4- | 
[V:1] f6f2 | 
[V:2] d4c4 | 
[V:3] z4c4- | 
[V:4] F,2F,2F,4 | 
[V:1] f2c2g4 | 
[V:2] A2F2G4 | 
[V:3] c2c2c2c2 | 
[V:4] F,4E,4 | 
[V:1] f3df2e2- | 
[V:2] A8 | 
[V:3] d4c4 | 
[V:4] D,3C,A,,2C,2- | 
[V:1] e2A2B2d2- | 
[V:2] z4D4 | 
[V:3] A2F2G4 | 
[V:4] C,2D,2B,,4 | 
[V:1] d2cBc2A2 | 
[V:2] F4E4 | 
[V:3] A8- | 
[V:4] A,,8- | 
[V:1] E8 ||  
[V:2] A8 ||  
[V:3] A8 ||  
[V:4] A,,8 ||  
[V:1] [M:2/1]z8 | 
[V:2] [M:2/1]f6ed | 
[V:3] [M:2/1]z8 | 
[V:4] [M:2/1]z2F,3G,A,B, | 
[V:1] z8 | 
[V:2] e2f2d4 | 
[V:3] z8 | 
[V:4] C2A,2B,3A, | 
[V:1] z2F3GAB | 
[V:2] c4f4 | 
[V:3] f6ed | 
[V:4] F,3E,D,4 | 
[V:1] c2A2B3A | 
[V:2] z4f4- | 
[V:3] e2f2d4 | 
[V:4] C,2D,2B,,4 | 
[V:1] F6G2 | 
[V:2] f2e2d4 | 
[V:3] c4f4 | 
[V:4] z4B,,4 | 
[V:1] A4z2A2 | 
[V:2] c2f3edc | 
[V:3] z4f4- | 
[V:4] F,8 | 
[V:1] B2c2G4 | 
[V:2] d2c4=B2 | 
[V:3] f2e2d4 | 
[V:4] z8 | 
[V:1] A3GA2B2- | 
[V:2] c4z4 | 
[V:3] c2f3edc | 
[V:4] F,3E,F,2G,2- | 
[V:1] BAG4F2 | 
[V:2] z8 | 
[V:3] d2c4=B2 | 
[V:4] G,2E,2D,4 | 
[V:1] G4A4 | 
[V:2] z2c2c3A | 
[V:3] c4z4 | 
[V:4] C,4z2F,2 | 
[V:1] z8 | 
[V:2] BcA4G2 | 
[V:3] z8 | 
[V:4] G,2A,2B,3A, | 
[V:1] z4z2F2 | 
[V:2] A8 | 
[V:3] z2c2c3A | 
[V:4] F,8 | 
[V:1] G2A2B3A | 
[V:2] z8 | 
[V:3] BcA4G2 | 
[V:4] z8 | 
[V:1] FGABcdef | 
[V:2] z2FGABc2- | 
[V:3] A8 | 
[V:4] z8 | 
[V:1] gcf4e2 | 
[V:2] c2A2G4 | 
[V:3] z8 | 
[V:4] z4C,4 | 
[V:1] f4z4 | 
[V:2] F8 | 
[V:3] z2FGABc2- | 
[V:4] D,3E,F,G,A,2- | 
[V:1] z8 | 
[V:2] z8 | 
[V:3] c2A2G4 | 
[V:4] A,G,F,4E,2 | 
[V:1] z2c4d2- | 
[V:2] z4F4 | 
[V:3] F8 | 
[V:4] F,4z2B,,2- | 
[V:1] d2e4f2- | 
[V:2] G4A4 | 
[V:3] z8 | 
[V:4] B,,2C,4D,2- | 
[V:1] fde2f4 | 
[V:2] A4A4 | 
[V:3] z4F4 | 
[V:4] D,2C,2D,4 | 
[V:1] e4z2c2 | 
[V:2] z2c3BAG | 
[V:3] G4A4 | 
[V:4] C,4F,3E, | 
[V:1] d2c2dcf2- | 
[V:2] F2E2F4 | 
[V:3] A4A4 | 
[V:4] D,2A,,2D,4 | 
[V:1] f2e2f3e | 
[V:2] G4F4 | 
[V:3] z2c3BAG | 
[V:4] C,4z2F,2- | 
[V:1] dcc4=B2 | 
[V:2] z8 | 
[V:3] F2E2F4 | 
[V:4] F,E,C,2D,4 | 
[V:1] c8 | 
[V:2] z4f4- | 
[V:3] G4F4 | 
[V:4] C,4z2F,2- | 
[V:1] z8 | 
[V:2] f2ede2f2- | 
[V:3] z8 | 
[V:4] F,G,A,B,C2D2- | 
[V:1] z8 | 
[V:2] fedcd4 | 
[V:3] z4f4- | 
[V:4] DCC4=B,2 | 
[V:1] FGABc2d2- | 
[V:2] c4z4 | 
[V:3] f2ede2f2- | 
[V:4] C4z4 | 
[V:1] dcc4=B2 | 
[V:2] z8 | 
[V:3] fedcd4 | 
[V:4] z4z2G,2 | 
[V:1] c4F4 | 
[V:2] z2c3BAG | 
[V:3] c4z4 | 
[V:4] A,2F,2C3B, | 
[V:1] z4z2G2 | 
[V:2] F2A2G4 | 
[V:3] z8 | 
[V:4] A,G,F,4E,2 | 
[V:1] A2F2c4- | 
[V:2] F8 | 
[V:3] z2c3BAG | 
[V:4] F,4z4 | 
[V:1] c2BAB2c2 | 
[V:2] z2c2d2e2 | 
[V:3] F2A2G4 | 
[V:4] z4z2C,2 | 
[V:1] A2B3AF2 | 
[V:2] f6ed | 
[V:3] F8 | 
[V:4] D,4D,4 | 
[V:1] G4B4 | 
[V:2] e2g3fe2 | 
[V:3] z2c2d2e2 | 
[V:4] C,4G,4 | 
[V:1] A4F4 | 
[V:2] d2c4=B2 | 
[V:3] f6ed | 
[V:4] F,3E,D,4 | 
[V:1] A2G2B3A/B/ | 
[V:2] c4z4 | 
[V:3] e2g3fe2 | 
[V:4] z2C,2G,4 | 
[V:1] AGG4F2 | 
[V:2] z8 | 
[V:3] d2c4=B2 | 
[V:4] F,3E,D,4 | 
[V:1] G4A4 | 
[V:2] z2c2d2c2- | 
[V:3] c4z4 | 
[V:4] C,4F,4 | 
[V:1] F2f2d2e2 | 
[V:2] cBcAB2c2 | 
[V:3] z8 | 
[V:4] z2F,2G,2C,2 | 
[V:1] f8 | 
[V:2] A2F2B2A2 | 
[V:3] z2c2d2c2- | 
[V:4] F,4B,,2F,2 | 
[V:1] z2f2d2e2 | 
[V:2] F2A2G4 | 
[V:3] cBcAB2c2 | 
[V:4] z2F,2G,2C,2 | 
[V:1] f3ed2c2- | 
[V:2] F8 | 
[V:3] A2F2B2A2 | 
[V:4] D,4B,,2F,2 | 
[V:1] c2f3de2 | 
[V:2] z8 | 
[V:3] F2A2G4 | 
[V:4] z2F,2G,2C,2 | 
[V:1] f3ec2d2- | 
[V:2] z4F4 | 
[V:3] F8 | 
[V:4] D,2F,4E,D, | 
[V:1] d2c2d2e2 | 
[V:2] G4A4- | 
[V:3] z8 | 
[V:4] E,4D,2C,2 | 
[V:1] c4d4 | 
[V:2] A2G2A4 | 
[V:3] z4F4 | 
[V:4] F,2E,2D,4 | 
[V:1] e4z2c2 | 
[V:2] z2c3BAG | 
[V:3] G4A4- | 
[V:4] C,4F,4- | 
[V:1] d2e2f4 | 
[V:2] F2G4F2 | 
[V:3] A2G2A4 | 
[V:4] F,2E,2D,4 | 
[V:1] e4c2f2- | 
[V:2] G4A4 | 
[V:3] z2c3BAG | 
[V:4] C,4F,4 | 
[V:1] fedcB2A2 | 
[V:2] z8 | 
[V:3] F2G4F2 | 
[V:4] z8 | 
[V:1] B4A4 | 
[V:2] z4c4 | 
[V:3] G4A4 | 
[V:4] z8 | 
[V:1] z2d2e2c2 | 
[V:2] B4c4 | 
[V:3] z8 | 
[V:4] G,4C,4 | 
[V:1] f4e4 | 
[V:2] F4z2G2- | 
[V:3] z4c4 | 
[V:4] D,4C,4 | 
[V:1] z2d2e2c2 | 
[V:2] G2F2G2A2- | 
[V:3] B4c4 | 
[V:4] D,4C,4 | 
[V:1] f4e3d | 
[V:2] AGABc4 | 
[V:3] F4z2G2- | 
[V:4] D,4C,3B,, | 
[V:1] e2fedcc2- | 
[V:2] z2A2B2c2 | 
[V:3] G2F2G2A2- | 
[V:4] C,2D,2B,,2F,2- | 
[V:1] c2f3de2 | 
[V:2] F4G4 | 
[V:3] AGABc4 | 
[V:4] F,2D,2C,4 | 
[V:1] A3FG2A2- | 
[V:2] F4z4 | 
[V:3] z2A2B2c2 | 
[V:4] z2F,2D,2C,2 | 
[V:1] AFf4e2 | 
[V:2] z4c4- | 
[V:3] F4G4 | 
[V:4] D,4C,4 | 
[V:1] f8- | 
[V:2] c2A2d4 | 
[V:3] F8- | 
[V:4] F,8- | 
[V:1] f8 |]  
[V:2] c8 |]  
[V:3] F8 |]  
[V:4] F,8 |]  



% FRACTION = 0.9375BUT SHOULD BE 0
% FRACTION = 0.9375BUT SHOULD BE 0
% FRACTION = 0.9375BUT SHOULD BE 0
% FRACTION = 0.9375BUT SHOULD BE 0
% FRACTION = 0.9375BUT SHOULD BE 0
% FRACTION = 0.9375BUT SHOULD BE 0
